X: 2772
T: Banks, The
R: hornpipe
M: 4/4
K: Fdorian
K: EbMaj
|:(3B,CD|E2 G2- G2 (3BGE|D2 F2- F2 (3AFD|A,2 c2- c2 d>e|(=A>B).c>.B ._A>.G.F>.E|
G,2 B2- B2 c2|A,2 c2- c2 d>e|(D>E).F>.G .A>.F.D>.F|[.G,2.E2] [.B,2.G2] [.G,2.E2]:|
|:{a/}g>^f|g2 [G,2E2] [G,2E2] (3gbg|f2 [B,2D2] [B,2D2] (3fgf|e2 c2- c2 f>e|(d>c).B>.=A {A/}B2 {e/}f2|
D>Bf>B (3DBf (3.f.B.D|E>Bg>B (3EBg (3.g.B.E|(=A>B).c>.d .e>.c.A>.c|{B/c/} (B>A).B>.c .B>._A.G>.F|
([G,3/2E3/2]G/).B>.G (e>G).F>.E|(D>F).B>.F (d>F).E>.D|(C>E).A>.E (c>B).A>.G|(F>G).F>.E .D>.C.B,>.A,|
G,>EB>E G,>EB>E|A,>Ec>E A,>Ec>E|(D>E).F>.G .A>.F.D>.F|[G,2E2] [B,2G2] [G,2E2]:|

